src/main/resources/icons/JavaUltimateIcons/icons/cdi/beanInfrastructure.svg

<svg xmlns="http://www.w3.org/2000/svg" width="16" height="16" viewBox="0 0 16 16">
  <g fill="none" fill-rule="evenodd">
    <path fill="#40B6E0" fill-opacity=".7" d="M2.32266706,3.39252903 L7.85633303,8.92595701 C7.19440552,9.77393064 6.8,10.8409061 6.8,12 C6.8,13.1098956 7.16163462,14.1353268 7.77350115,14.9648911 C6.28794836,14.6473655 4.82731172,13.797586 3.56554326,12.5358188 C0.862237158,9.83251523 0.0504395713,6.21468126 2.32266706,3.39252903 Z M12.5345972,3.56677327 C13.9128915,4.94506621 14.799484,6.56109332 15.0363211,8.18805314 C14.1635636,7.44701869 13.0339852,7 11.8,7 C10.7430353,7 9.76267071,7.32796446 8.95511875,7.887681 L3.39029168,2.32289104 C6.21244656,0.050665696 9.83028394,0.861455325 12.5345972,3.56677327 Z"/>
    <path fill="#9AA7B0" d="M11.8067798,8 C12.0930705,8 12.3723364,8.03007671 12.6415902,8.08724276 L12.7532276,9.20103808 C13.127874,9.32767742 13.4688362,9.52742639 13.7591373,9.78330808 L14.7787945,9.32280051 C15.1510626,9.73579774 15.438472,10.2267831 15.6135516,10.7682856 L14.7039414,11.4211956 C14.7411263,11.6083661 14.7606262,11.8019059 14.7606262,12.0000001 C14.7606262,12.1977413 14.7411958,12.3909442 14.7041401,12.5778038 L15.6138753,13.2307126 C15.4388264,13.7726114 15.1512922,14.2639476 14.7787945,14.6771995 L13.7591373,14.2166922 C13.4688362,14.4725739 13.127874,14.6723229 12.7532276,14.7989622 L12.6415902,15.9127572 C12.3723364,15.9699233 12.0930705,16 11.8067798,16 C11.5201329,16 11.2405284,15.9698484 10.9709647,15.9125438 L10.8590231,14.7985194 C10.4848264,14.6718354 10.1442669,14.4722064 9.85427106,14.2165587 L8.83476496,14.6771995 C8.46226731,14.2639476 8.17473312,13.7726114 7.99968416,13.2307126 L8.90941973,12.5778038 C8.87236403,12.3909442 8.85293363,12.1977413 8.85293363,12.0000001 C8.85293363,11.8019059 8.87243349,11.6083661 8.90961841,11.4211956 L7.99968416,10.7692874 C8.17473312,10.2273886 8.46226731,9.73605241 8.83476496,9.32280051 L9.85427106,9.78344157 C10.1442669,9.52779394 10.4848264,9.32816489 10.8590231,9.20148091 L10.9709647,8.08745619 C11.2405284,8.03015158 11.5201329,8 11.8067798,8 Z M11.8067796,10.5846153 C11.0250843,10.5846153 10.391395,11.2183591 10.391395,12.0001217 C10.391395,12.7818843 11.0250843,13.4156281 11.8067796,13.4156281 C12.5884749,13.4156281 13.2221642,12.7818843 13.2221642,12.0001217 C13.2221642,11.2183591 12.5884749,10.5846153 11.8067796,10.5846153 Z"/>
  </g>
</svg>

<svg xmlns="http://www.w3.org/2000/svg" width="16" height="16" viewBox="0 0 16 16"><rect id="frame" width="16" height="16" fill="none"/><g fill="none" fill-rule="evenodd"><path fill="#40B6E0" fill-opacity=".7" d="M2.323 3.393l5.533 5.533A4.978 4.978 0 0 0 6.8 12c0 1.11.362 2.135.974 2.965-1.486-.318-2.947-1.167-4.208-2.43C.862 9.834.05 6.216 2.323 3.394zm10.212.174c1.378 1.378 2.264 2.994 2.501 4.621A4.983 4.983 0 0 0 11.8 7a4.977 4.977 0 0 0-2.845.888L3.39 2.323C6.212.05 9.83.86 12.535 3.567z"/><path fill="#9AA7B0" d="M11.807 8c.286 0 .565.03.835.087l.111 1.114a2.95 2.95 0 0 1 1.006.582l1.02-.46c.372.413.66.904.835 1.445l-.91.653a2.968 2.968 0 0 1 0 1.157l.91.653a3.996 3.996 0 0 1-.835 1.446l-1.02-.46a2.95 2.95 0 0 1-1.006.582l-.111 1.114a4.016 4.016 0 0 1-1.671 0l-.112-1.114a2.95 2.95 0 0 1-1.005-.582l-1.02.46A3.996 3.996 0 0 1 8 13.231l.91-.653a2.968 2.968 0 0 1 0-1.157L8 10.77a3.996 3.996 0 0 1 .835-1.446l1.02.46a2.95 2.95 0 0 1 1.004-.582l.112-1.114c.27-.057.55-.087.836-.087zm0 2.585a1.415 1.415 0 1 0 0 2.83 1.415 1.415 0 0 0 0-2.83z"/></g></svg>
